style/svgs/trash_can.svg

<?xml version="1.0" encoding="UTF-8"?>
<svg width="100px" height="100px" viewBox="0 0 100 100" version="1.1" xmlns="http://www.w3.org/2000/svg" xmlns:xlink="http://www.w3.org/1999/xlink">
    <title>Trash</title>
    <g id="Trash" stroke="none" stroke-width="1" fill="none" fill-rule="evenodd">
        <path d="M69.4908521,95 C72.1275484,95 74.3021432,94.1768707 76.0146367,92.5306122 C77.7271302,90.8843537 78.651333,88.755102 78.7872452,86.1428571 L81.7637219,25.2040816 L87.6351281,25.2040816 C88.2875065,25.2040816 88.8447465,24.9659864 89.3068479,24.4897959 C89.7689493,24.0136054 90,23.462585 90,22.8367347 C90,22.1564626 89.7689493,21.5918367 89.3068479,21.1428571 C88.8447465,20.6938776 88.2875065,20.4693878 87.6351281,20.4693878 L68.3486601,20.4696651 L68.3491898,13.7755102 C68.3491898,11.0544218 67.5133298,8.91156463 65.84161,7.34693878 C64.1698902,5.78231293 61.8661788,5 58.9304757,5 L42.987977,5 C40.0522739,5 37.7553581,5.78231293 36.0972295,7.34693878 C34.4391009,8.91156463 33.6100366,11.0544218 33.6100366,13.7755102 L33.6099138,20.4696651 L14.3648719,20.4693878 C13.7396759,20.4693878 13.1892316,20.7006803 12.7135389,21.1632653 C12.2378463,21.6258503 12,22.1836735 12,22.8367347 C12,23.4897959 12.2378463,24.047619 12.7135389,24.5102041 C13.1892316,24.9727891 13.7396759,25.2040816 14.3648719,25.2040816 L20.2362781,25.2040816 L23.2535285,86.1428571 C23.3894407,88.7823129 24.3068479,90.9183673 26.0057501,92.5510204 C27.7046524,94.1836735 29.8724516,95 32.5091479,95 L69.4908521,95 Z M63.3743094,20.4696651 L38.5429613,20.4696651 L38.5436487,14.0612245 C38.5436487,12.7278912 38.9649765,11.6666667 39.807632,10.877551 C40.6502875,10.0884354 41.7919498,9.69387755 43.2326189,9.69387755 L58.6858338,9.69387755 C60.1536853,9.69387755 61.3021432,10.0884354 62.1312075,10.877551 C62.9602718,11.6666667 63.374804,12.7278912 63.374804,14.0612245 L63.3743094,20.4696651 Z M69.0423419,90.2244898 L32.8761108,90.2244898 C31.6257188,90.2244898 30.5452169,89.7823129 29.6346053,88.8979592 C28.7239937,88.0136054 28.2279143,86.9319728 28.146367,85.6530612 L25.1698902,25.2040816 L76.7077888,25.2040816 L73.8128594,85.6530612 C73.7584945,86.9591837 73.2760063,88.047619 72.3653947,88.9183673 C71.4547831,89.7891156 70.3470988,90.2244898 69.0423419,90.2244898 Z" id="􀈑" fill="#FFFFFF" fill-rule="nonzero"></path>
    </g>
</svg>

<svg xmlns="http://www.w3.org/2000/svg" width="100" height="100"><path fill="#FFF" fill-rule="nonzero" d="M69.49 95c2.638 0 4.812-.823 6.525-2.47 1.712-1.646 2.636-3.775 2.772-6.387l2.977-60.939h5.871c.653 0 1.21-.238 1.672-.714.462-.476.693-1.027.693-1.653 0-.68-.231-1.245-.693-1.694a2.312 2.312 0 0 0-1.672-.674H68.35v-6.693c0-2.722-.836-4.864-2.507-6.43C64.17 5.783 61.866 5 58.93 5H42.988c-2.936 0-5.233.782-6.89 2.347-1.659 1.565-2.488 3.707-2.488 6.429v6.694H14.365c-.625 0-1.176.23-1.651.693A2.25 2.25 0 0 0 12 22.837c0 .653.238 1.21.714 1.673.475.463 1.026.694 1.65.694h5.872l3.018 60.939c.135 2.64 1.053 4.775 2.752 6.408C27.705 94.184 29.872 95 32.509 95h36.982Zm-6.116-74.53H38.543V14.06c0-1.333.422-2.394 1.265-3.183.842-.79 1.984-1.184 3.425-1.184h15.453c1.468 0 2.616.394 3.445 1.184.83.789 1.244 1.85 1.244 3.183v6.409Zm5.668 69.754H32.876c-1.25 0-2.33-.442-3.241-1.326-.911-.884-1.407-1.966-1.489-3.245L25.17 25.204h51.538l-2.895 60.45c-.055 1.305-.537 2.394-1.448 3.264-.91.871-2.018 1.306-3.323 1.306Z"/></svg>
